!!!COM: Palestrina, Giovanni Perluigi da
!!!OPR: Missa Io mi son giovinetta (1570)
!!!OTL: Benedictus
**kern	**kern	**kern
*Itenor	*Icant	*Icant
!Tenor	!Cantus 2	!Cantus 1
*clefGv2	*clefG2	*clefG2
*k[b-]	*k[b-]	*k[b-]
*G:dor	*G:dor	*G:dor
*M4/2	*M4/2	*M4/2
=1	=1	=1
1r	1dd	0r
1g	2dd	.
.	2dd	.
=2	=2	=2
2g	2.ee	0r
2g	.	.
.	4dd	.
2.a	2cc	.
.	[2ff	.
4g	.	.
=3	=3	=3
2f	2ff]	0r
2g	2.ee	.
2f	.	.
.	4dd	.
2g	[2dd	.
=4	=4	=4
1e	2dd]	1r
.	2cc	.
2.d	2b-	1dd
.	4a	.
4e	4g	.
=5	=5	=5
2f	2a	2dd
2g	2b	2dd
1c	1cc	2.ee
.	.	4dd
=6	=6	=6
2.f	0a	2cc
.	.	1ff
4e	.	.
2d	.	.
2c	.	[2ee
=7	=7	=7
2f	2r	4ee]
.	.	4dd
2g	2g	1dd
1e	2g	.
.	2g	2cc#
=8	=8	=8
0d	2.a	2dd
.	.	2.ff
.	4g	.
.	2f	.
.	.	4ee
.	[2b-	4dd
.	.	4cc
=9	=9	=9
1r	2b-]	2dd
.	2.a	2cc
1d	.	2b-
.	4g	.
.	[2g	4a
.	.	4g
=10	=10	=10
2d	2g]	1a
2d	2f#	.
2e	1g	[1g
[2c	.	.
=11	=11	=11
2c]	2r	1g]
4B-	2dd	.
4A	.	.
1B	2dd	2r
.	2dd	2g
=12	=12	=12
1c	2.ee	2g
.	.	2g
.	4dd	.
2A	2cc	2.a
[2d	[2ff	.
.	.	4g
=13	=13	=13
4d]	4ff]	2f
4c	4ee-	.
4B-	4dd	1b-
4A	4cc	.
2B-	2dd	.
2c	2cc	2a
=14	=14	=14
1e-	2b-	2g
.	4a	1g
.	4g	.
1d	1a	.
.	.	2f#
=15	=15	=15
[0G	0g	2g
.	.	2dd
.	.	2ee-
.	.	[2dd
=16	=16	=16
1G]	2r	4dd]
.	.	4cc
.	2dd	4b-
.	.	4a
1r	2ee-	2g
.	[2dd	2f
=17	=17	=17
1r	4dd]	2.b-
.	4cc	.
.	4b-	.
.	4a	4cc
2r	2g	1dd
2d	2f	.
=18	=18	=18
2e-	2g	0r
2.d	2b-	.
.	2a	.
4c	.	.
4B-	2b-	.
4A	.	.
=19	=19	=19
2G	2a	2r
2B-	1g	2dd
2c	.	2ee-
2d	2f	[2dd
=20	=20	=20
1G	2.b-	4dd]
.	.	4cc
.	.	4b-
.	4cc	4a
2r	4dd	2g
.	4ee-	.
2d	[2dd	2f
=21	=21	=21
2.g	4dd]	1b-
.	4cc	.
.	1b-	.
4g	.	.
1f	.	1cc
.	2a	.
=22	=22	=22
2r	0b-	2dd
2B-	.	2dd
2.e-	.	2.gg
4e-	.	4gg
=23	=23	=23
2d	0r	2.ff
4B-	.	.
4c	.	4ee-
4d	.	4dd
4e-	.	4cc
4f	.	2dd
4d	.	.
=24	=24	=24
4e-	1r	2cc
4f	.	.
2.g	.	4b-
.	.	4a
.	1dd	4b-
4f	.	4cc
4f	.	[2dd
8e-	.	.
8d	.	.
=25	=25	=25
2e-	2.gg	2dd]
2e-	.	2cc
.	4gg	.
1d	2.ff	2.dd
.	4ee-	4cc
=26	=26	=26
2r	4dd	2b-
.	4cc	.
2d	2.dd	2a
2.g	.	1b-
.	4cc	.
.	[2b-	.
4g	.	.
=27	=27	=27
1f	2b-]	1cc
.	2a	.
2r	2b-	2dd
2B-	2dd	2b-
=28	=28	=28
2.B-	2.dd	2.b-
4B-	4dd	4b-
2f	2cc	2a
2B-	2b-	2dd
=29	=29	=29
1c	2a	2.cc
.	2g	.
.	.	4b-
[1d	2f	2.a
.	2ff	.
.	.	4g
=30	=30	=30
2d]	2ee-	2f
2B-	2dd	2b-
2c	4cc	4a
.	4b-	4g
2e-	4a	[2g
.	4g	.
=31	=31	=31
1d	2a	2g]
.	2a	2f#
2r	[1g	2g
2G	.	2dd
=32	=32	=32
2.c	1g]	2.ee-
4c	.	4ee-
2B-	2r	2dd
[2c	2g	[2ee-
=33	=33	=33
2c]	2.cc	2ee-]
4B-	.	4dd
4A	4cc	4cc
4G	2b-	1dd
4A	.	.
4B-	4g	.
4c	4a	.
=34	=34	=34
4d	4b-	0r
4e	4g	.
4f	4a	.
4d	4b-	.
4e	2cc	.
4f	.	.
[2g	4b-	.
.	4a	.
=35	=35	=35
4g]	4b-	1dd
4f	4cc	.
4f	1dd	.
8e-	.	.
8d	.	.
2e-	.	2.gg
2e-	2cc	.
.	.	4gg
=36	=36	=36
1d	2.dd	2.ff
.	4cc	4ee-
2r	2b-	4dd
.	.	4cc
2d	2a	[2dd
=37	=37	=37
2.g	1b-	4dd]
.	.	4cc
.	.	1b-
4g	.	.
1f	1cc	.
.	.	2a
=38	=38	=38
2r	2dd	2b-
2B-	2b-	2dd
2.B-	2.b-	2.dd
4B-	4b-	4dd
=39	=39	=39
2f	2a	2cc
2B-	2dd	2b-
1c	2.cc	2a
.	.	2g
.	4b-	.
=40	=40	=40
1.d	2.a	2f
.	.	2.ff
.	4g	.
.	2f	.
.	.	4ee-
2B-	2b-	2dd
=41	=41	=41
2c	4a	4cc
.	4g	4b-
2e-	1g	4a
.	.	4g
2d	.	2a
2d	2f#	2a
=42	=42	=42
0G	0g	0g
==	==	==
*-	*-	*-
!!!CDT: 1525/^1526/-1594/2/2
!!!OCY: Italia
!!!AGN: Mass (Parody)
!!!AST: renaissance, vocal
!!!ASW: Madrigal 1542 (Ferabosco)
!!!PWK: Masses, Book 3
!!!RNB: Cadence finals: A
!!!YOR: Le Opere Complete, v. 6, p. 30
!!!YOO: Rome, Italy: Fratelli Scalera
!!!END: 1992//
!!!EED: John Miller
!!!YEC: Copyright 2000, John Miller
!!!YEN: United States of America
!!!YEM: Rights to all derivative electronic formats reserved.
!!!YEM: Refer to licensing agreement for further details.
!!!YEM: This file must be accompanied by the licensing agreement.
!!!YEM: A copy of the licensing agreement may be found at http://www.music-cog.ohio-state.edu/HumdrumDatabases/Palestrina/license.txt
!!!EMD: converted to Humdrum by Bret Aarden
